!!!COM: Music21
!!!OTL: barndance_Glory-In-The-Meeting-House
!!!OMV: barndance_Glory-In-The-Meeting-House
**kern
*clefG2
*k[f#]
*M4/4
=1
4d
4dd
8ddL
8ccJ
8aL
8gJ
=
8aL
8ccJ
4dd
8ddL
8ccJ
8aL
8f#J
=
4d
4dd
8ddL
8ccJ
8aL
8f#J
=
8gL
8aJ
8gL
[8f#J
8f#L]
8gJ
8eL
8f#J
=
4d
4dd
8ddL
8ccJ
8aL
8gJ
=
8aL
8ccJ
4dd
4dd
8ddL
8eeJ
!!linebreak:original
=
8ffnL
8eeJ
8ddL
8ccJ
4a
8gL
8f#XJ
=
8gL
8aJ
8gL
8f#J
8dL
8eJ
8cL
8dJ
=||
*M4/4
4d
4dd
8ddL
8ccJ
8aL
8gJ
=
8aL
8ccJ
4dd
8ddL
8ccJ
8aL
8f#J
=
4d
4dd
8ddL
8ccJ
8aL
8f#J
!!linebreak:original
=
8gL
8aJ
8gL
[8f#J
8f#L]
8gJ
8eL
8f#J
=
4d
4dd
8ddL
8ccJ
8aL
8gJ
=
8aL
8ccJ
4dd
4dd
8ddL
8eeJ
=
8ffnL
8eeJ
8ddL
8ccJ
4a
8gL
8f#XJ
=
8gL
8aJ
8gL
8f#J
8dL
8eJ
8cL
8dJ
!!linebreak:original
=||
8dL
8eJ
8f#L
8gJ
8aL
8ccJ
8aL
8gJ
=
8f#L
8aJ
8gL
8f#J
8dL
8eJ
8cL
8dJ
=
8dL
8eJ
8f#L
8gJ
8aL
8ccJ
8aL
8gJ
=
4f#
4d
2g
=
8dL
8eJ
8f#L
8gJ
8aL
8ccJ
8aL
8gJ
=
8f#L
8aJ
8gL
8f#J
8dL
8eJ
8cL
8dJ
!!linebreak:original
=
8dL
8eJ
8f#L
8gJ
8aL
8ccJ
8aL
8gJ
=
4f#
4d
2d
=||
8dL
8eJ
8f#L
8gJ
8aL
8ccJ
8aL
8gJ
=
8f#L
8aJ
8gL
8f#J
8dL
8eJ
8cL
8dJ
=
8dL
8eJ
8f#L
8gJ
8aL
8ccJ
8aL
8gJ
=
4f#
4d
2g
!!linebreak:original
=
8dL
8eJ
8f#L
8gJ
8aL
8ccJ
8aL
8gJ
=
8f#L
8aJ
8gL
8f#J
8dL
8eJ
8cL
8dJ
=
8dL
8eJ
8f#L
8gJ
8aL
8ccJ
8aL
8gJ
=
4f#
4d
2d
=||
*-
